assets/icons/kitchen.svg

<svg height="48" viewBox="0 0 24 24" width="48" xmlns="http://www.w3.org/2000/svg"><path d="m0 0h24v24h-24z" fill="none"/><path d="m18 2.01-12-.01c-1.1 0-2 .89-2 2v16c0 1.1.9 2 2 2h12c1.1 0 2-.9 2-2v-16c0-1.11-.9-1.99-2-1.99zm0 17.99h-12v-9.02h12zm0-11h-12v-5h12zm-10-4h2v3h-2zm0 7h2v5h-2z"/></svg>

<svg height="24" viewBox="0 0 24 24" width="24" xmlns="http://www.w3.org/2000/svg">
    <path d="M0 0h24v24H0V0z" fill="none"/>
    <path d="M18 2.01L6 2c-1.1 0-2 .89-2 2v16c0 1.1.9 2 2 2h12c1.1 0 2-.9 2-2V4c0-1.11-.9-1.99-2-1.99zM18 20H6v-9.02h12V20zm0-11H6V4h12v5zM8 5h2v3H8zm0 7h2v5H8z"/>
</svg>
